src/lib/packages/icons/src/assets/line/comment-edit.svg

<svg width="24" height="24" viewBox="0 0 24 24" fill="none" xmlns="http://www.w3.org/2000/svg">
<path d="M12 3.25C6.26 3.25 2.25 6.84898 2.25 12.001C2.25 14.08 2.90189 15.947 4.13989 17.426C3.98989 17.996 3.61706 18.8291 2.68506 19.5811C2.29406 19.9131 2.15295 20.442 2.32495 20.928C2.49595 21.411 2.93408 21.731 3.43408 21.743C3.57208 21.748 3.71291 21.75 3.85791 21.75C5.36491 21.75 7.24293 21.4599 8.60693 20.2729C9.67493 20.591 10.814 20.752 12.001 20.752C17.741 20.752 21.751 17.153 21.751 12.001C21.751 6.84898 17.74 3.25 12 3.25ZM12 19.2531C10.815 19.2531 9.69003 19.072 8.65503 18.714C8.37703 18.617 8.06504 18.694 7.86304 18.91C6.90304 19.934 5.34311 20.202 4.18311 20.243C4.99511 19.413 5.52292 18.399 5.69092 17.328C5.72592 17.101 5.65598 16.871 5.50098 16.703C4.35498 15.463 3.75 13.837 3.75 12.001C3.75 7.73098 7.143 4.75 12 4.75C16.857 4.75 20.25 7.73198 20.25 12.001C20.25 16.27 16.857 19.2531 12 19.2531ZM15.2791 7.72998C14.9691 7.41998 14.5581 7.25 14.1211 7.25C14.1201 7.25 14.1189 7.25 14.1179 7.25C13.6799 7.25 13.268 7.42206 12.96 7.73206L7.46899 13.248C7.32799 13.389 7.25 13.579 7.25 13.777V16C7.25 16.414 7.586 16.75 8 16.75H10.2229C10.4209 16.75 10.612 16.671 10.752 16.532L16.2681 11.041C16.5791 10.732 16.749 10.32 16.75 9.88196C16.75 9.44396 16.58 9.03095 16.27 8.72095L15.2791 7.72998ZM14.1201 8.75C14.1461 8.75 14.184 8.75702 14.219 8.79102L15.209 9.78101C15.243 9.81501 15.25 9.854 15.25 9.88C15.25 9.906 15.243 9.94403 15.209 9.97803L14.573 10.6121L13.3899 9.42798L14.0239 8.79102C14.0569 8.75702 14.0951 8.75 14.1201 8.75ZM9.91309 15.25H8.75V14.087L12.3311 10.49L13.509 11.6689L9.91309 15.25Z" fill="currentColor"/>
</svg>

<svg xmlns="http://www.w3.org/2000/svg" width="24" height="24" fill="none"><path fill="currentColor" d="M12 3.25c-5.74 0-9.75 3.599-9.75 8.751 0 2.079.652 3.946 1.89 5.425-.15.57-.523 1.403-1.455 2.155a1.22 1.22 0 0 0-.36 1.347c.17.483.61.803 1.11.815.137.005.278.007.423.007 1.507 0 3.385-.29 4.749-1.477a11.87 11.87 0 0 0 3.394.479c5.74 0 9.75-3.599 9.75-8.751 0-5.152-4.011-8.751-9.751-8.751Zm0 16.003c-1.185 0-2.31-.181-3.345-.539a.75.75 0 0 0-.792.196c-.96 1.024-2.52 1.292-3.68 1.333.812-.83 1.34-1.844 1.508-2.915a.752.752 0 0 0-.19-.625c-1.146-1.24-1.751-2.866-1.751-4.702 0-4.27 3.393-7.251 8.25-7.251s8.25 2.982 8.25 7.251-3.393 7.252-8.25 7.252ZM15.28 7.73c-.31-.31-.722-.48-1.159-.48h-.003c-.438 0-.85.172-1.158.482l-5.491 5.516a.747.747 0 0 0-.219.529V16c0 .414.336.75.75.75h2.223a.753.753 0 0 0 .529-.218l5.516-5.491c.311-.309.481-.721.482-1.159 0-.438-.17-.851-.48-1.161l-.99-.991Zm-1.16 1.02a.14.14 0 0 1 .099.041l.99.99a.138.138 0 0 1 0 .197l-.636.634-1.183-1.184.634-.637a.132.132 0 0 1 .096-.041Zm-4.207 6.5H8.75v-1.163l3.581-3.597 1.178 1.179-3.596 3.581Z"/></svg>
